X: 169
T:Paddy On The Handcar - GDGD
M:4/4
L:1/8
F:http://blackrosetheband.googlepages.com/ABCTUNES.ABC May 2009
S:Troublesome Creek String Band
K:GMix
GF|:"G"DEGG G2B2-|BGAG BGAF|"F"CDFF F3F|AFGF AFGF|"G"DEG2 G3A|
BAGB AGD2|G3A Bcdf|"C"ecec "G"d2GA|BAGB "F"AFAF|1 "G"G3A GAGG:|2"G"G3A GAGD||
|:"G"D2g2 gagf|d2ga g3f|dcde fedf|"C"ecec "D"d4|
"G"G3A Bcdf|"C"ecec "G"d2GA|BAGB "F"AFAF|1"G"G3A G2GD:|2 "G"G3A G2GF||

